!!!OTL: Die J&uuml;din (22b), S. 93
!!!id: T0142
**kern
*clefG2
*k[b-]
*F:
{8c
=1
8f
8f
8f
16g
16g
=2
8a
8g
8f}
=3
{8cc
=4
8cc
8cc
8b-
8cc
=5
4a}
8r
=6
{8cc
=7
8cc
16b-
16b-
8dd
8b-
=8
4b-
8g}
=9
{16g
16a
=10
16b-
16b-
8b-
16cc
16b-
8cc
=11
4cc
8a}
=12
{16dd
16dd
=13
8cc
8cc
8b-
8cc
=14
4a}
8r
==
*-
!!!minrhy: 16
!!!meters: 2/4 ]  ZZ[5
!!!cut: Die J&uuml;din (22b), S. 93
!!!reg: Luxemburg
!!!trd: Singendes Volk, Esch-Alzette 1937 posth.
!!!rhy1: X_  X_X_X_XX  X_X_X_
!!!rhy2: X_  X_X_X_X_  X__0_
!!!key: T0142  16  F 2/4 ]  ZZ[5
!!!mod: SECHSTONSKALA DUR ?]  AMBITUS[9
!!!kad: 13233
!!!akz: 13_53_54_45_53_
!!!fot: 'a__b__c__d__bv_
!!!for: 'a__b__c__d__bv_
!!!fok: '^a_\__\__^a_\__
!! PHRAS[AUFTAKTIG]
!!!fkt: Liebeslieder
!!!bem: Hesperingen, fff Besch-Oberweis, 14.5.1934
!! THILL, Mathias:
!! PR[34] 2K[3] 2G[16] 3K[9] 3G[3] 4A[3] 4Ü[0] 5A[0] 6K[0] 6G[0]
!! 7K[0] 7G[0] 8A[0] MEHR[0] SI[34] ABS[32] SR[19] SP[16]
!! ST[8] 2k[6] 2g[19] 3k[3] 3g[0] 4d[3] 4ü[0] 5d[0] 6k[0] 6g[0]
!! 7k[0] 7g[0] 8d[0] mehr[0] si[31] dm[+3] sr[25] sp[6]
!! 1F[12] 2F[65] 3F[0] 4F[0] LF[0] 2P[0] 3P[24] 4P[0] TRI[0] DF[3] AB[34]
!! TF[0] U3K[0] U3[0] U4[0] U4Ü[0] U5[3] U6K[0] U6[0] U7K[0] U7[0]
!! N1[12] N2K[0] N2[24] N3K[0] N3[36] N4[9] N4Ü[0] N5[12] N6K[0] N6[3]
!!!n7k: 0] N7[0] O1[0] O2K[0] O2[0] O3K[0] O3[0] HÖ[0
!!!RNB: symbol: &uuml;  = u umlaut (UTF-8: Ã¼)
